X: 1
T:I'll Go and Enlist
M:2/2
C:
S:Bacon (MDT)
N:
A:Sherborne
O:English
R:Reel
%P:A/2.A$^4$.(B$^2$A$^2$)$^2$
P:A.A4.(B2A2)2
K:Gm
%:bet you we will play it in Em
%:NoTeX
Q:1/2=96
P:A
G2 GA B2 c2 | d2 g2 d2 d=e | f2 f2 f2 AB | c2 cA F2 F2 |\
G2 GA B2 c2 | d2 g2 d2 d=e | f2 A2 c2 BA | G4    G4    ||\
P:B
%Q:1/2=80 for FC
%Q:1/2=76 for UC
G4    G3 A  | B4    c4     | d4    g4    | d4    d3 =e |\
f4    f4    | f4    A3 B   | c4    c3 A  | F4    F4    |\
G2 GA B2 c2 | d2 g2 d2 d=e | f2 A2 c2 BA | G4    G4    ||
